X: 305621
T: BELFAST HORNPIPE
C:
%R: hornpipe, reel
B: Elias Howe "The Musician's Companion" Part 3 1844 p.77 #2
S: http://imslp.org/wiki/The_Musician's_Companion_(Howe,_Elias)
Z: 2015 John Chambers <jc:trillian.mit.edu>
M: 2/4
L: 1/16
K: A
% - - - - - - - - - - - - - - - - - - - - - - - - -
A2 |\
dcec cBdB | AGBG A2E2 | FAGB AcBd | [cA]a[ge][cA] B2d2 |\
dcec cBdB | AGBG A2E2 | FAGB Agfd | cBAG A2 :|
cd |\
edcd e2(fg) | agbg a2eg | agfe fedc | c2B2B2 (cd) |\
edcd e2(fg) | agbg a2eg | agfe gfed | edef edc"^D.C."B |]
% - - - - - - - - - - - - - - - - - - - - - - - - -


